assets/icon-pepper.svg

<svg
  class="icon icon-accordion icon-pepper"

  focusable="false"
  xmlns="http://www.w3.org/2000/svg"


  viewBox="0 0 20 20"
>
  <path d="M13.8697 0.56604C13.8697 0.289898 14.0935 0.06604 14.3697 0.06604H16.1634C16.4395 0.06604 16.6634 0.289898 16.6634 0.56604V2.00119C16.8943 2.11287 17.0762 2.2161 17.2364 2.32805C17.4622 2.48585 17.6272 2.64926 17.8098 2.83566C18.3879 3.4258 18.6838 4.0656 18.5812 4.59575C18.5301 4.85963 18.3669 5.11474 18.0821 5.22789C17.9221 8.51167 16.8642 11.1646 15.0245 13.383C13.1049 15.6976 10.3577 17.5112 6.97064 19.0917C5.83897 19.6198 4.66049 19.9164 3.67478 19.9278C2.73561 19.9387 1.7552 19.6826 1.37658 18.8445C1.17446 18.3971 1.11237 17.9655 1.26429 17.5467C1.40694 17.1534 1.71003 16.8573 2.02785 16.6059C2.26091 16.4216 2.54867 16.227 2.85558 16.0194C2.96642 15.9444 3.07977 15.8678 3.19393 15.7893C3.63681 15.4849 4.13145 15.1279 4.65693 14.6701C4.92064 14.4404 5.1939 14.2073 5.47234 13.9698C6.40218 13.1766 7.38971 12.3342 8.27196 11.4037C9.41554 10.1975 10.3247 8.89945 10.6603 7.47273C10.7012 7.29869 10.724 7.08615 10.7475 6.8208C10.7505 6.7866 10.7535 6.75157 10.7566 6.71584C10.7764 6.48649 10.7987 6.22794 10.8381 5.97015C10.8938 5.60546 10.9878 5.20747 11.1798 4.83151C11.1501 4.80403 11.1216 4.77301 11.0947 4.73804C10.8783 4.45736 10.9044 4.09427 10.9762 3.79231C11.0555 3.45849 11.2874 3.18135 11.5216 2.97117C11.7664 2.75155 12.0711 2.55419 12.3884 2.38942C12.8464 2.15153 13.3815 1.95585 13.8697 1.86928V0.56604ZM12.407 4.86811C12.409 4.86725 12.4109 4.86639 12.4129 4.86553C12.5275 4.8153 12.6251 4.76382 12.6749 4.73705C12.7418 4.71705 12.8926 4.7152 13.0953 4.80628C13.3053 4.90068 13.4627 5.0486 13.5278 5.17835C13.8801 5.881 14.5839 6.01378 15.1168 5.94363C15.387 5.90805 15.6472 5.8201 15.8648 5.7034C16.0705 5.59304 16.2919 5.42788 16.421 5.20375C16.4448 5.16235 16.5495 5.06452 16.7333 5.01828C16.8672 4.98459 16.9905 4.99199 17.0898 5.03328C16.9642 8.18191 15.9752 10.67 14.2547 12.7446C12.4678 14.8993 9.86837 16.636 6.54778 18.1856C5.51393 18.668 4.47602 18.9184 3.66318 18.9279C2.80379 18.9378 2.40347 18.6886 2.2879 18.4328C2.15392 18.1362 2.1692 17.9846 2.20436 17.8877C2.24879 17.7652 2.36666 17.613 2.64825 17.3902C2.8499 17.2307 3.09094 17.0677 3.38386 16.8696C3.50082 16.7905 3.62606 16.7057 3.76036 16.6134C4.2184 16.2986 4.74771 15.9173 5.31379 15.4241C5.56162 15.2082 5.82407 14.9844 6.09557 14.7529C7.03158 13.9546 8.07509 13.0647 8.99763 12.0917C10.1906 10.8335 11.2389 9.38021 11.6337 7.70168C11.6933 7.4485 11.7207 7.16834 11.7436 6.90875C11.7469 6.87165 11.7501 6.83481 11.7532 6.79817C11.7733 6.5669 11.7926 6.34398 11.8266 6.12103C11.9027 5.62261 12.0414 5.21135 12.3412 4.90777C12.3619 4.89477 12.3838 4.88149 12.407 4.86811ZM17.5332 4.1359C17.467 3.98775 17.339 3.7841 17.0954 3.53544C16.9171 3.35342 16.8072 3.24815 16.6635 3.14766C16.5173 3.0455 16.3189 2.93675 15.9612 2.77864C15.7802 2.69861 15.6634 2.51929 15.6634 2.32133V1.06604H14.8697V2.32133C14.8697 2.59747 14.6458 2.82133 14.3697 2.82133C13.9943 2.82133 13.3936 2.99416 12.8493 3.27687C12.5835 3.41493 12.3546 3.5673 12.1894 3.71553C12.0695 3.82309 12.0059 3.90791 11.9745 3.96414C12.0669 3.91366 12.1677 3.8644 12.2738 3.81991C12.6862 3.64699 13.1523 3.73558 13.5052 3.89417C13.8667 4.05666 14.2281 4.34391 14.4217 4.73012C14.5095 4.90511 14.6858 4.99174 14.9862 4.95218C15.1326 4.93291 15.2773 4.88373 15.3921 4.82216C15.5023 4.76309 15.5456 4.71437 15.5533 4.70578C15.5544 4.70449 15.5548 4.70411 15.5544 4.70472C15.7497 4.36558 16.1228 4.14073 16.4892 4.04851C16.8054 3.96897 17.1837 3.97088 17.5332 4.1359Z" fill-rule="evenodd" />
</svg>

<svg xmlns="http://www.w3.org/2000/svg" class="icon icon-accordion icon-pepper" viewBox="0 0 20 20"><path fill-rule="evenodd" d="M13.87.566a.5.5 0 0 1 .5-.5h1.793a.5.5 0 0 1 .5.5v1.435a4 4 0 0 1 .573.327c.226.158.391.321.574.508.578.59.874 1.23.771 1.76a.83.83 0 0 1-.499.632c-.16 3.284-1.218 5.937-3.058 8.155-1.92 2.315-4.666 4.128-8.053 5.709-1.132.528-2.31.824-3.296.836-.94.01-1.92-.245-2.298-1.084-.203-.447-.265-.879-.113-1.297.143-.394.446-.69.764-.941.233-.184.52-.379.828-.587q.166-.112.338-.23c.443-.304.937-.661 1.463-1.119q.397-.345.815-.7c.93-.793 1.918-1.636 2.8-2.566 1.144-1.207 2.053-2.505 2.388-3.931.041-.174.064-.387.088-.652l.009-.105c.02-.23.042-.488.081-.746a3.7 3.7 0 0 1 .342-1.138 1 1 0 0 1-.085-.094c-.217-.28-.19-.644-.119-.946.08-.334.311-.61.546-.82.244-.22.55-.418.866-.583a5.4 5.4 0 0 1 1.482-.52zm-1.463 4.302.006-.002c.114-.05.212-.102.262-.129.067-.02.218-.022.42.07.21.094.368.242.433.371.352.703 1.056.836 1.589.766.27-.036.53-.124.748-.24.205-.111.427-.276.556-.5.024-.042.128-.14.312-.186a.57.57 0 0 1 .357.015c-.126 3.149-1.115 5.637-2.835 7.712-1.787 2.154-4.387 3.891-7.707 5.44-1.034.483-2.072.733-2.885.743-.86.01-1.26-.24-1.375-.495-.134-.297-.119-.448-.084-.545.045-.123.163-.275.444-.498.202-.16.443-.322.736-.52q.175-.119.376-.257c.458-.314.988-.696 1.554-1.189q.373-.324.782-.671c.936-.798 1.98-1.688 2.902-2.661 1.193-1.258 2.24-2.712 2.636-4.39.06-.253.087-.534.11-.793l.01-.11c.02-.232.039-.455.073-.678.076-.498.214-.91.514-1.213zm5.126-.732c-.066-.148-.194-.352-.438-.6a3 3 0 0 0-.431-.388c-.147-.103-.345-.211-.703-.37a.5.5 0 0 1-.298-.457V1.066h-.793v1.255a.5.5 0 0 1-.5.5c-.376 0-.976.173-1.52.456-.266.138-.495.29-.66.439-.12.107-.184.192-.215.248q.139-.076.299-.144c.412-.173.878-.084 1.231.074.362.163.723.45.917.836.087.175.264.262.564.222.147-.02.291-.068.406-.13.11-.059.154-.108.161-.116l.001-.001c.196-.34.569-.564.935-.656.316-.08.695-.078 1.044.087"/></svg>
